public/assets/images/icons/black/star-halffull.svg

<svg viewBox="0 0 16 16" xmlns="http://www.w3.org/2000/svg" xml:space="preserve" fill-rule="evenodd" clip-rule="evenodd" stroke-linejoin="round" stroke-miterlimit="2"><path d="M8 11.558 3.623 14.74l1.67-5.151-4.38-3.18h5.415L8.001 1.26l1.671 5.149h5.415l-4.38 3.18 1.67 5.151-4.376-3.183-.001.001.001-1.248 2.479 1.803-.946-2.918 2.481-1.802H8.947l-.946-2.917L8 4.478v7.08z"/></svg>

<?xml version="1.0" encoding="UTF-8" standalone="no"?>
<!DOCTYPE svg PUBLIC "-//W3C//DTD SVG 1.1//EN" "http://www.w3.org/Graphics/SVG/1.1/DTD/svg11.dtd">
<svg width="100%" height="100%" viewBox="0 0 16 16" version="1.1" xmlns="http://www.w3.org/2000/svg" xmlns:xlink="http://www.w3.org/1999/xlink" xml:space="preserve" xmlns:serif="http://www.serif.com/" style="fill-rule:evenodd;clip-rule:evenodd;stroke-linejoin:round;stroke-miterlimit:2;">
    <path d="M8,11.558L3.623,14.74L5.293,9.589L0.913,6.409L6.328,6.409L8.001,1.26L9.672,6.409L15.087,6.409L10.707,9.589L12.377,14.74L8.001,11.557L8,11.558L8.001,10.31L10.48,12.113L9.534,9.195L12.015,7.393L8.947,7.393L8.001,4.476L8,4.478L8,11.558Z"/>
</svg>
